X:12
T:La polka du talon [ok]
R:
S:
N: |1 fed e2 c :| ou |1 fed e2 d :|
A:Champagne
G:
O:France
Z:<anamnese@laposte.net>
M:6/8
L:1/8
Q:1/4=185
K:C
e3 g3 | fed e2c | e3 g3 | fed c3 :: cde cde | cde d3 | ddd d2 g |1 fed e2 c :|2 fed c3 |]
